X: 36172
T: Scotsman Over The Border, The
R: jig
M: 6/8
K: Dmajor
|:D3 FEF|AFA d2c|BdB BAB|dgf edB|
ADD FEF|AFA d2c|BdB AFA|dAF ED2:|
|:dfa afa|bag fge|dfa afe|def e2A|
dfa afa|bag fge|fdB AFA|dAF ED2:|

